icons/desktop/16/svg/home-16.svg

<svg width="16" height="16" viewBox="0 0 16 16" fill="none" xmlns="http://www.w3.org/2000/svg">
<path fill-rule="evenodd" clip-rule="evenodd" d="M6.4093 1.13805C7.36227 0.461187 8.63896 0.461106 9.59289 1.13805C10.9388 2.095 12.228 3.15073 13.4249 4.27867C14.2579 5.06265 15.0616 5.89626 15.8155 6.75523C16.0875 7.06716 16.057 7.53982 15.7462 7.81285C15.4352 8.08485 14.9616 8.05554 14.6866 7.74254C14.6256 7.67294 14.5628 7.60474 14.5011 7.53551V12.0355C14.5011 13.4375 13.4535 14.6139 12.0655 14.7709C10.7227 14.9228 9.35492 15.0003 8.0011 15.0004C6.6551 15.0004 5.29699 14.9238 3.96399 14.7738C2.56015 14.6168 1.50035 13.4412 1.50012 12.0384V7.53551C1.43839 7.60472 1.37564 7.67294 1.31457 7.74254C1.1676 7.91151 0.960038 7.99837 0.752073 7.9984L0.75012 8.00035C0.57412 8.00035 0.396979 7.93883 0.255979 7.81383C-0.055854 7.54091 -0.087051 7.06721 0.186643 6.75523C0.939643 5.89623 1.74432 5.06265 2.57531 4.27965C3.77522 3.14977 5.06543 2.09295 6.4093 1.13805ZM8.00012 9.50035C7.60254 9.50035 7.24713 9.55273 6.9425 9.62535L6.65539 9.70348C6.57661 9.72782 6.50031 9.81293 6.50012 9.9359V13.4632C7.4987 13.5062 8.50103 13.5061 9.50012 13.4632V9.93883C9.50012 9.84816 9.45571 9.77435 9.39953 9.73277L9.34094 9.7025C8.7777 9.52967 8.29532 9.50036 8.00012 9.50035ZM8.72375 2.35973C8.29192 2.05201 7.71029 2.05209 7.27942 2.35973C5.99142 3.27473 4.75461 4.28844 3.60461 5.37144C3.40127 5.5628 3.19961 5.75721 3.00012 5.95445V12.0384C3.00035 12.6762 3.48617 13.2105 4.13098 13.2836C4.41982 13.316 4.70972 13.3434 5.00012 13.3685V9.9359C5.00031 9.19539 5.46808 8.49955 6.21496 8.26988C6.68927 8.1243 7.29422 8.00035 8.00012 8.00035C8.39492 8.00036 9.03481 8.03883 9.78137 8.26793C10.5262 8.49706 11.0001 9.1959 11.0001 9.93883V13.3695C11.3 13.3435 11.5993 13.3144 11.8976 13.2806C12.5266 13.2096 13.0011 12.6745 13.0011 12.0355V5.9525C12.8021 5.75556 12.6007 5.56158 12.3976 5.37047C11.2496 4.29047 10.0138 3.27673 8.72375 2.35973Z" fill="black"/>
</svg>

<!-- This Source Code Form is subject to the terms of the Mozilla Public
   - License, v. 2.0. If a copy of the MPL was not distributed with this
   - file, You can obtain one at http://mozilla.org/MPL/2.0/. -->
<svg xmlns="http://www.w3.org/2000/svg" width="16" height="16" fill="context-fill" fill-opacity="context-fill-opacity" viewBox="0 0 16 16">
    <path fill-rule="evenodd" d="M6.41 1.138a2.75 2.75 0 0 1 3.183 0 36 36 0 0 1 6.223 5.617.75.75 0 0 1-1.13.988q-.091-.104-.185-.207v4.5a2.75 2.75 0 0 1-2.435 2.735 36.242 36.242 0 0 1-8.102.003A2.76 2.76 0 0 1 1.5 12.038V7.536q-.093.103-.185.207a.74.74 0 0 1-.563.255L.75 8a.75.75 0 0 1-.563-1.245A36.186 36.186 0 0 1 6.41 1.138M8 9.5c-.397 0-.753.053-1.057.125l-.288.078a.24.24 0 0 0-.155.233v3.527q1.5.064 3 0V9.94a.26.26 0 0 0-.1-.206l-.06-.03A4.6 4.6 0 0 0 8 9.5m.724-7.14a1.245 1.245 0 0 0-1.445 0A34.7 34.7 0 0 0 3 5.954v6.084c0 .638.486 1.172 1.131 1.246q.433.048.87.084V9.936c0-.74.467-1.436 1.214-1.666a6.08 6.08 0 0 1 3.566-.002c.745.23 1.22.928 1.22 1.67v3.432q.448-.039.897-.09A1.25 1.25 0 0 0 13 12.037V5.953q-.299-.295-.603-.583a35 35 0 0 0-3.674-3.01" clip-rule="evenodd" />
</svg>
